static/assets/template/assets/img/icons/essential/detailed/Kettlebell.svg

<svg height="147" viewBox="0 0 148 147" width="148" xmlns="http://www.w3.org/2000/svg"><g fill="none" fill-rule="evenodd" transform="translate(1 2)"><g stroke-linecap="round" stroke-linejoin="round" stroke-width="3" transform="translate(0 142)"><path d="m1.8.9h-1.2"/><path d="m36.5.9h-29.8"/><path d="m43 .9h-1.2"/><path d="m139.7.9h-90.2"/><path d="m145.4.9h-1.8"/></g><g fill-rule="nonzero"><path d="m118.2 72.2c-.8-1.3-1.1-2.3-.1-3.8 6.8-9.8 9-20.5 7.2-32.3-2.7-17.6-18.9-33.6-36.6-35.2-8.5-.8-17.1-.5-25.7-.5-3.1 0-6.2.4-9.2 1-30.2 6.5-44.1 40.8-26.9 66.5 1.1 1.6 1 2.7 0 4.2-13.9 21.9-9.4 51.4 10.4 68.2 2.5 2.1 5.1 3 8.3 3 9-.1 18 0 27 0h27.2c2.6 0 5-.5 7-2.2 20.4-16.9 25.3-46.4 11.4-68.9zm-16.3-18.2c-.2.3-.4.5-.7.9-19-11-38.1-11.1-57.1-.2-7-10-2.4-25.4 9.2-30.7 2.5-1.1 5.4-2 8.2-2.1 7.8-.3 15.6-.5 23.4.1 15.1 1.1 24.4 18.8 17 32z"/><path d="m118.9 76.9c-.8-1.3-1-2.1-.1-3.5 6.2-9.1 8.2-19.2 6.5-30.2-2.5-16.5-17.2-31.4-33.3-32.9-7.7-.7-15.6-.5-23.3-.5-2.8 0-5.6.3-8.4.9-27.5 6.1-40.1 38.1-24.4 62.1 1 1.5.9 2.5 0 3.9-12.7 20.5-8.5 48 9.5 63.8 2.2 2 4.6 2.8 7.5 2.8 8.2-.1 16.4 0 24.5 0h24.8c2.4 0 4.5-.5 6.4-2.1 18.5-15.7 23-43.3 10.3-64.3zm-23.8-16.8c-14.9-8.7-29.9-8.8-44.8-.2-3.6 2.1-8.3-.2-9-4.3-2-11.8 2.8-25.4 12.1-30.8 2.5-1.5 5.4-2.5 8.2-2.7 7.8-.3 15.6-.6 23.4.1 13.8 1.2 21.6 19.3 19.3 33.6-.8 4.2-5.5 6.4-9.2 4.3z"/><path d="m88.8 86.3c-11.9-7.5-28.6-2.3-34.7 9.5-1.4 2.7-5.6 1.5-5.3-1.5.9-11.8 10.5-22.4 24-22.4 8.2 0 15.5 4.1 19.8 10.4 1.8 2.5-1.2 5.7-3.8 4z" fill="#bad8ff"/><path d="m58.7 109.4c11.9 7.5 28.6 2.3 34.7-9.5 1.4-2.7 5.6-1.5 5.3 1.5-.9 11.8-10.5 22.4-24 22.4-8.2 0-15.5-4.1-19.8-10.4-1.8-2.5 1.2-5.7 3.8-4z"/><path d="m126 106.4c.5-7.4-9.2-10.6-13.4-4.4-10.6 15.6-27.9 25.8-47.5 25.8-5.3 0-10.5-.8-15.4-2.2-7.1-2-12.5 6.6-7.4 11.9 1 1 2 2 3.1 3 2.2 2 4.6 2.8 7.5 2.8 8.2-.1 16.4 0 24.5 0h24.8c2.4 0 4.5-.5 6.4-2.1 10.5-8.9 16.5-21.6 17.4-34.8z" fill="#bad8ff"/></g><path d="m118.1 68.5c-1 1.5-.8 2.4.1 3.8 14 22.5 9.1 52-11.4 68.9-2.1 1.7-4.4 2.2-7 2.2-9.1 0-18.1 0-27.2 0-9 0-18-.1-27 0-3.2 0-5.8-.9-8.3-3-19.8-16.8-24.3-46.3-10.4-68.2 1-1.5 1.1-2.6 0-4.2-14.2-21.2-7.3-48.2 12.6-60.7m30.9-6.9c6.1 0 12.2 0 18.3.6 17.7 1.6 33.9 17.6 36.6 35.2m-76.6-33.3c1.7-.6 3.4-1 5.1-1.4 2-.4 4-.7 6-.9m35.2 51.2c2.1.9 4.2 2 6.2 3.2.3-.4.5-.7.7-.9 7.4-13.2-1.9-30.9-17-31.9-7.8-.5-15.6-.3-23.4-.1-2.8.1-5.6.9-8.2 2.1-11.6 5.3-16.2 20.6-9.2 30.7 13.7-7.9 27.3-10 41-6.6m11.6 39.2c1.2 2.9 1.9 6.2 1.9 9.6 0 2.8-.5 5.7-1.6 8.5-3.6 9.6-12.9 16.4-23.8 16.4-14 0-25.4-11.4-25.4-25.4 0-1.5.1-2.9.4-4.4m19-20.2c3.5-.9 7.2-1 10.9-.3 3.6.7 7 2.2 9.9 4.3" stroke-linecap="round" stroke-linejoin="round" stroke-width="3"/></g></svg>

<?xml version="1.0" encoding="UTF-8"?>
<svg width="148px" height="147px" viewBox="0 0 148 147" version="1.1" xmlns="http://www.w3.org/2000/svg" xmlns:xlink="http://www.w3.org/1999/xlink">
    <!-- Generator: Sketch 51.2 (57519) - http://www.bohemiancoding.com/sketch -->
    <title>Kettlebell</title>
    <desc>Created with Sketch.</desc>
    <defs></defs>
    <g id="Page-1" stroke="none" stroke-width="1" fill="none" fill-rule="evenodd">
        <g id="Kettlebell" transform="translate(1.000000, 2.000000)">
            <g id="Group" transform="translate(0.000000, 142.000000)" class="stroke-primary-300" stroke-linecap="round" stroke-linejoin="round" stroke-width="3">
                <path d="M1.8,0.9 L0.6,0.9" id="Shape"></path>
                <path d="M36.5,0.9 L6.7,0.9" id="Shape"></path>
                <path d="M43,0.9 L41.8,0.9" id="Shape"></path>
                <path d="M139.7,0.9 L49.5,0.9" id="Shape"></path>
                <path d="M145.4,0.9 L143.6,0.9" id="Shape"></path>
            </g>
            <path d="M118.2,72.2 C117.4,70.9 117.1,69.9 118.1,68.4 C124.9,58.6 127.1,47.9 125.3,36.1 C122.6,18.5 106.4,2.5 88.7,0.9 C80.2,0.1 71.6,0.4 63,0.4 C59.9,0.4 56.8,0.8 53.8,1.4 C23.6,7.9 9.7,42.2 26.9,67.9 C28,69.5 27.9,70.6 26.9,72.1 C13,94 17.5,123.5 37.3,140.3 C39.8,142.4 42.4,143.3 45.6,143.3 C54.6,143.2 63.6,143.3 72.6,143.3 C81.7,143.3 90.7,143.3 99.8,143.3 C102.4,143.3 104.8,142.8 106.8,141.1 C127.2,124.2 132.1,94.7 118.2,72.2 Z M101.9,54 C101.7,54.3 101.5,54.5 101.2,54.9 C82.2,43.9 63.1,43.8 44.1,54.7 C37.1,44.7 41.7,29.3 53.3,24 C55.8,22.9 58.7,22 61.5,21.9 C69.3,21.6 77.1,21.4 84.9,22 C100,23.1 109.3,40.8 101.9,54 Z" id="Shape" class="fill-neutral" fill-rule="nonzero"></path>
            <path d="M118.9,76.9 C118.1,75.6 117.9,74.8 118.8,73.4 C125,64.3 127,54.2 125.3,43.2 C122.8,26.7 108.1,11.8 92,10.3 C84.3,9.6 76.4,9.8 68.7,9.8 C65.9,9.8 63.1,10.1 60.3,10.7 C32.8,16.8 20.2,48.8 35.9,72.8 C36.9,74.3 36.8,75.3 35.9,76.7 C23.2,97.2 27.4,124.7 45.4,140.5 C47.6,142.5 50,143.3 52.9,143.3 C61.1,143.2 69.3,143.3 77.4,143.3 C85.7,143.3 93.9,143.3 102.2,143.3 C104.6,143.3 106.7,142.8 108.6,141.2 C127.1,125.5 131.6,97.9 118.9,76.9 Z M95.1,60.1 C80.2,51.4 65.2,51.3 50.3,59.9 C46.7,62 42,59.7 41.3,55.6 C39.3,43.8 44.1,30.2 53.4,24.8 C55.9,23.3 58.8,22.3 61.6,22.1 C69.4,21.8 77.2,21.5 85,22.2 C98.8,23.4 106.6,41.5 104.3,55.8 C103.5,60 98.8,62.2 95.1,60.1 Z" id="Shape" class="fill-primary-100" fill-rule="nonzero"></path>
            <path d="M88.8,86.3 C76.9,78.8 60.2,84 54.1,95.8 C52.7,98.5 48.5,97.3 48.8,94.3 C49.7,82.5 59.3,71.9 72.8,71.9 C81,71.9 88.3,76 92.6,82.3 C94.4,84.8 91.4,88 88.8,86.3 Z" id="Shape" fill="#BAD8FF" fill-rule="nonzero"></path>
            <path d="M58.7,109.4 C70.6,116.9 87.3,111.7 93.4,99.9 C94.8,97.2 99,98.4 98.7,101.4 C97.8,113.2 88.2,123.8 74.7,123.8 C66.5,123.8 59.2,119.7 54.9,113.4 C53.1,110.9 56.1,107.7 58.7,109.4 Z" id="Shape" class="fill-neutral" fill-rule="nonzero"></path>
            <path d="M126,106.4 C126.5,99 116.8,95.8 112.6,102 C102,117.6 84.7,127.8 65.1,127.8 C59.8,127.8 54.6,127 49.7,125.6 C42.6,123.6 37.2,132.2 42.3,137.5 C43.3,138.5 44.3,139.5 45.4,140.5 C47.6,142.5 50,143.3 52.9,143.3 C61.1,143.2 69.3,143.3 77.4,143.3 C85.6,143.3 93.9,143.3 102.2,143.3 C104.6,143.3 106.7,142.8 108.6,141.2 C119.1,132.3 125.1,119.6 126,106.4 Z" id="Shape" fill="#BAD8FF" fill-rule="nonzero"></path>
            <path d="M118.1,68.5 C117.1,70 117.3,70.9 118.2,72.3 C132.2,94.8 127.3,124.3 106.8,141.2 C104.7,142.9 102.4,143.4 99.8,143.4 C90.7,143.4 81.7,143.4 72.6,143.4 C63.6,143.4 54.6,143.3 45.6,143.4 C42.4,143.4 39.8,142.5 37.3,140.4 C17.5,123.6 13,94.1 26.9,72.2 C27.9,70.7 28,69.6 26.9,68 C12.7,46.8 19.6,19.8 39.5,7.3 M70.4,0.4 C76.5,0.4 82.6,0.4 88.7,1 C106.4,2.6 122.6,18.6 125.3,36.2 M48.7,2.9 C50.4,2.3 52.1,1.9 53.8,1.5 C55.8,1.1 57.8,0.8 59.8,0.6 M95,51.8 C97.1,52.7 99.2,53.8 101.2,55 C101.5,54.6 101.7,54.3 101.9,54.1 C109.3,40.9 100,23.2 84.9,22.2 C77.1,21.7 69.3,21.9 61.5,22.1 C58.7,22.2 55.9,23 53.3,24.2 C41.7,29.5 37.1,44.8 44.1,54.9 C57.8,47 71.4,44.9 85.1,48.3 M96.7,87.5 C97.9,90.4 98.6,93.7 98.6,97.1 C98.6,99.9 98.1,102.8 97,105.6 C93.4,115.2 84.1,122 73.2,122 C59.2,122 47.8,110.6 47.8,96.6 C47.8,95.1 47.9,93.7 48.2,92.2 M67.2,72 C70.7,71.1 74.4,71 78.1,71.7 C81.7,72.4 85.1,73.9 88,76" id="Shape" class="stroke-primary" stroke-width="3" stroke-linecap="round" stroke-linejoin="round"></path>
        </g>
    </g>
</svg>
